!!!!SEGMENT: pl-kk--kk-i-6--039-003_anonim--missa-de-nativitate-sanctus.krn
!!!cenid: 16xx:1028
!!!COM: Anonim
!!!COM-rismid: pe30004985
!!!CDT:
!!!CNT:
!!!OPR: Missa de Nativitate
!!!OTL: Sanctus
!!!OMV: 003
!!!PDT:
!!!AGN: Sacred; Mass
!!!SMS-siglum: PL-Kk
!!!SMS-shelfmark: Kk.I.6
!!!SMS-shelfwork: 039-003 M
!!!SMS-variant:
!!!SMS-altvar:
!!!NIFC-rismid: 1001136501
!!!URL-scan: http://repozytorium.nifc.pl/skany/pl-kk-nut--i-6
!!!ONB-nifc: UWAGA: C (skan 0061, s. 118-119), T (skan 0173, s. 140-141), B (skan 0282, s. 146-147) Części Mszy: 1. Kyrie, 2. Et in terra, 3. Sanctus, 4. Agnus Dei
!!!key:
**kern	**text	**kern	**text	**kern	**text
*part3	*part3	*part2	*part2	*part1	*part1
*staff3	*staff3	*staff2	*staff2	*staff1	*staff1
*Iempty	*	*Itenor	*	*Ivox	*
*I"Baſso.	*	*I"Tenore	*	*I"Canto.	*
*I'B	*	*I'T	*	*I'S	*
*clefF4	*	*clefC4	*	*clefC1	*
*k[b-]	*	*k[b-]	*	*k[b-]	*
*g:dor	*	*g:dor	*	*g:dor	*
*M2/2	*	*M2/2	*	*M2/2	*
*met(C|)	*	*met(C|)	*	*met(C|)	*
!LO:TX:t=P:problem:Inicjał S przed kluczem	!	!LO:TX:t=P:problem:Inicjał S przed kluczem	!	!LO:TX:t=P:problem:Inicjał S przed kluczem,< na początku pięciolinii	!
4G\	SAn-	4B-\	SAn-	4.b-\	SAn-
!LO:TX:a:t=P:problem:rozdzielacz słów:global	!	!LO:TX:a:t=P:problem:rozdzielacz słów:global	!	!	!
4B-,<\	-ctus	4d,<\	-ctus	.	.
.	.	.	.	8b-\	-ctus
*	*ij	*	*ij	*	*ij
4F\	San-	4c\	San-	4a\	San-
!	!	!	!	!LO:TX:t=P:problem:kreska pseudotaktowa	!
!	!	!	!	!LO:TX:a:t=P:problem:rozdzielacz słów:global	!
4G,<\	-ctus	4B-,<\	-ctus	4g,</	-ctus
*	*Xij	*	*Xij	*	*Xij
!	!	!	!	!LO:TX:b:t=P:problem:# below	!
(4D/	San-	8A\L	San-	8f#X/L	Sanc-
.	.	16B-\L	.	16g/L	.
.	.	16c\JJ	.	16a/JJ	.
4G\)	.	4B-\	.	4g/	-tus
!	!	!	!	!LO:TX:t=P:problem:kreska pseudotaktowa	!
2F,<\	-ctus	2c,<\	-ctus	2a,<\	.
=1-	=1-	=1-	=1-	=1-	=1-
4G\	D(o-	4B-\	D(o-	4b-\	D(o-
8B-\	-mi)-	8d\	-mi)-	8b-\	-mi)-
8B-\	-nus	8d\	-nus	8b-\	-nus
4F\	De-	4c\	De-	4a\	De-
!	!	!LO:SIC:v:t=custos A	!	!LO:TX:t=P:problem:kreska pseudotaktowa	!
4G\	-us	4B-\	-us	4g/	-us
!	!	!LO:LB:g=original	!	!LO:TX:b:t=P:problem:# below	!
4D/	Sab-	4A\	Sab-	4f#X/	Sab-
!LO:SIC:v:t=custos F	!	!	!	!	!
4G\	-ba-	4B-\	-ba-	4g/	-ba-
!LO:LB:g=original	!	!	!	!LO:TX:t=P:problem:kreska pseudotaktowa	!
2F\	-oth	2c,<\	-oth	2a\	-oth
=2-	=2-	=2-	=2-	=2-	=2-
!	!	!	!	!LO:TX:b:t=P:problem:# below	!
4G\	De-	4B-\	De-	4f#X/	De-
4C/	-us	4c\	-us	4g/	-us
4.D/	Sab-	4.A/	Sab-	4.f#X/	Sab-
!	!	!	!	!LO:TX:t=P:problem:kreska pseudotaktowa	!
8D/	-ba-	8A/	-ba-	8f#/	-ba-
1GG	-oth	1G,<	-oth	1g	-oth.
=3-	=3-	=3-	=3-	=3-	=3-
!	!	!	!	!LO:SIC:v:t=custos dd	!
8G\L	Sanc-	8B-\L	Sanc-	0r	.
!LO:TX:b:t=P:problem:# below	!	!	!	!	!
8F#X\	.	8A\	.	.	.
8G\	.	8B-\	.	.	.
8A\J	.	8c\J	.	.	.
4G\	.	4B-\	.	.	.
4D,</	-tus	4A,</	-tus	.	.
8G\L	San-	8B-\L	Sanc-	.	.
8F#\	.	8A\	.	.	.
8G\	.	8B-\	.	.	.
8A\J	.	8c\J	.	.	.
4G\	.	4B-\	.	.	.
4D/	-ctus	4A\	-tus	.	.
!	!	!	!	!LO:LB:g=original	!
=4-	=4-	=4-	=4-	=4-	=4-
*M3/1	*	*M3/1	*	*M3/1	*
1BB-	Do-	1B-	Do-	1dd	Do-
2BB-/	-mi-	2B-\	-mi-	2dd\	-mi-
2BB-/	-nus	2B-\	-nus	2dd\	-nus
2C/	De-	2G/	De-	2cc\	De-
!	!	!LO:SIC:v:t=custos G	!	!LO:TX:t=P:problem:kreska pseudotaktowa	!
2C/	-us	2G/	-us	2b-\	-us
!	!	!LO:PB:g=original	!	!	!
=5-	=5-	=5-	=5-	=5-	=5-
0D	Sab-	0G	Sab-	0a	Sab-
!	!	!LO:TX:a:t=P:problem:# above	!	!	!
1D	-ba-	1F#X	-ba-	1a	-ba-
=6-	=6-	=6-	=6-	=6-	=6-
!LO:SIC:v:t=custos GG	!	!	!	!	!
0GG,<	-oth	0G,<	-oth	0g,<	-oth
!LO:PB:g=original	!	!	!	!LO:TX:t=P:problem:kreska pseudotaktowa	!
1G	Ple-	1B-	Ple-	1g	Ple-
=7-	=7-	=7-	=7-	=7-	=7-
0G	-ni	0B-	-ni	0g	-ni
1G	ſunt	1B-	ſunt	1g	ſunt
=8-	=8-	=8-	=8-	=8-	=8-
0Fny	cae-	0c	cae-	0a	cae-
!	!	!	!	!LO:TX:t=P:problem:kreska pseudotaktowa	!
1F	-li	1c	-li	1a	-li
=9-	=9-	=9-	=9-	=9-	=9-
*lig	*	*lig	*	*lig	*
(1B-	et	(1d	et	(<1b-	et
1F)	.	1c)	.	1a)	.
*Xlig	*	*Xlig	*	*Xlig	*
1G	ter-	1B-	ter-	1g	ter-
=10-	=10-	=10-	=10-	=10-	=10-
*	*	*	*	*col	*
!	!	!	!	!LO:TX:a:t=P:problem:# above	!
0D,<	-ra	0A,<	-ra	0f#X,<	-ra
1BB-	glo-	1d	glo-	0b-	glo-
*	*	*	*	*Xcol	*
=11-	=11-	=11-	=11-	=11-	=11-
1E-X	-ri-	1e-X	-ri-	.	.
1BB-	-a	1d	-a	2b-\	-ri-
.	.	.	.	2b-\	-a
!	!	!	!	!LO:TX:t=P:problem:kreska pseudotaktowa	!
!	!	!	!	!LO:SIC:v:t=custos b	!
1F	tu-	1c	tu-	1a	tu-
!	!	!	!	!LO:PB:g=original	!
=12-	=12-	=12-	=12-	=12-	=12-
0BB-,<	-a	0d,<	-a	0b-,<	-a
1B-	O-	1d	O-	1b-	O-
=13-	=13-	=13-	=13-	=13-	=13-
0B-	-ſan-	0d	-ſan-	0b-	-ſan-
!	!	!LO:SIC:v:t=custos B	!	!	!
1F	-na	1c	-na	1a	-na
!	!	!LO:LB:g=original	!	!	!
=14-	=14-	=14-	=14-	=14-	=14-
1.G	in	1.B-	in	1.g	in
2C/	ex-	2c\	ex-	2g/	ex-
!LO:SIC:v:t=custos GG	!	!	!	!LO:TX:a:t=P:problem:# above	!
1D	-cel-	1A	-cel-	1f#X	-cel-
!LO:LB:g=original	!	!	!	!	!
=15-	=15-	=15-	=15-	=15-	=15-
0GG,<	-ſis	0B-,<	-ſis	0g,<	-ſis
1G	O-	1B-	O-	1g	O-
=16-	=16-	=16-	=16-	=16-	=16-
!	!	!	!	!LO:TX:a:t=P:problem:# above	!
0D	-ſan-	0A	-ſan-	0f#X	-ſan-
1G	-na	1B-	-na	1g	-na
=17-	=17-	=17-	=17-	=17-	=17-
*col	*	*	*	*	*
0F	in	2c\	in	0a	in
.	.	2A/	.	.	.
.	.	2B-\	.	.	.
.	.	2c\	.	.	.
0BB-	ex-	1d	ex-	1b-	ex-
=18-	=18-	=18-	=18-	=18-	=18-
*	*	*col	*	*	*
.	.	1B-	-cel-	0g	-cel-
1C	-cel-	0A	.	.	.
!	!	!	!	!LO:TX:a:t=P:problem:# above	!
1D	.	.	.	1f#X	.
*Xcol	*	*Xcol	*	*	*
=19-	=19-	=19-	=19-	=19-	=19-
!LO:TX:a:t=P:problem:brak kreski taktowej	!	!LO:TX:a:t=P:problem:brak kreski taktowej	!	!LO:TX:a:t=P:problem:brak kreski taktowej	!
0.GGl	-ſis.	0.Gl	-ſis.	0.gl	-ſis.
!	!	!LO:LB:g=original	!	!LO:LB:g=original	!
=20||	=20||	=20||	=20||	=20||	=20||
*M2/2	*	*M2/2	*	*M2/2	*
*met(C|)	*	*met(C|)	*	*met(C|)	*
!LO:TX:t=P:problem:Inicjał B przed kluczem	!	!LO:TX:t=P:problem:Inicjał B przed kluczem,< na początku pięciolinii	!	!LO:TX:t=P:problem:Inicjał B przed kluczem,< na początku pięciolinii	!
4.D/	BE-	4.A/	BE-	4.f/	BE-
8G\	-ne-	8B-\	-ne-	8g\	-ne-
4F\	-di-	4c\	-di-	4a\	-di-
8D/	-ctus	8d\	-ctus	8b-\	-ctus
!	!	!	!	!LO:TX:t=P:problem:kreska pseudotaktowa	!
8D/	qui	8d\	qui	8b-\	qui
4E-X\	ve-	2c\	Ve-	4b-\	Ve-
4F\	.	.	.	4a\	.
!LO:SIC:v:t=custos D	!	!	!	!LO:TX:t=P:problem:kreska pseudotaktowa	!
2BB-,</	-nit	2d\	-nit	2b-\	-nit
!LO:LB:g=original	!	!	!	!	!
=21-	=21-	=21-	=21-	=21-	=21-
4r	.	4r	.	4r	.
*	*ij	*	*ij	*	*ij
8D/	Be-	8F/	Be-	8a\	Be-
8G\	-ne-	8G/	-ne-	8b-\	-ne-
(8F\L	-di-	4A\	-di-	4cc\	-di-
8Eny\J)	.	.	.	.	.
(8F\L	-ctus	8B-\	-ctus	8dd\	-ctus
!	!	!	!	!LO:TX:t=P:problem:kreska pseudotaktowa	!
8D\J)	.	8B-\	qui	8dd\	qui
4E-X\	qui	4B-\	Ve-	4dd\	Ve-
4F\	ve-	4A\	.	4cc\	.
2BB-/	-nit	2B-\	-nit	2dd\	-nit
*	*Xij	*	*Xij	*	*Xij
=22-	=22-	=22-	=22-	=22-	=22-
4r	.	4r	.	4r	.
4B-\	in	4d\	in	4b-\	in
4B-\	no-	4d\	no-	4b-\	no-
8B-\	-mi-	8d\	-mi-	8b-\	-mi-
!	!	!	!	!LO:TX:t=P:problem:kreska pseudotaktowa	!
8B-\	-ne	8d\	-ne	8b-\	-ne
4.F\	Do-	4.c\	D(o-	4.a\	Do-
!	!	!	!	!LO:SIC:v:t=custos a	!
8G\	-mi-	8c\	-mi)-	8g\	-mi-
!	!	!	!	!LO:LB:g=original	!
4F,<\	-ni	4c,<\	-ni	4a,<\	-ni
8BB-/	Be-	8d\	Be-	4g\	Be-
!	!	!LO:SIC:v:t=custos c	!	!	!
8BB-/	-ne-	8d\	-ne-	.	.
!	!	!LO:LB:g=original	!	!	!
=23-	=23-	=23-	=23-	=23-	=23-
(2C/	-di-	(8c\L	.	2.g/	-ne-
.	.	8B-\J)	.	.	.
.	.	(8A/L	-di-	.	.
.	.	8G/J)	.	.	.
2D/)	.	2A/	.	.	.
.	.	.	.	4f/	-di-
=24-	=24-	=24-	=24-	=24-	=24-
*M3/1	*	*M3/1	*	*M3/1	*
0GG,<	-ctus	0G,<	-ctus	0g,<	-ctus
!	!	!	!	!LO:TX:t=P:problem:kreska pseudotaktowa	!
1G	O-	1B-	O-	1g	O-
=25-	=25-	=25-	=25-	=25-	=25-
0G	-ſan-	0B-	-ſan-	0g	-ſan-
!LO:SIC:v:t=custos B	!	!	!	!	!
1F	-na	1c	-na	1a	-na
!LO:LB:g=original	!	!	!	!	!
=26-	=26-	=26-	=26-	=26-	=26-
1B-	in	1d	in	1b-	in
1F	ex-	1c	ex-	1a	ex-
1G	-cel-	1B-	-cel-	1g	-cel-
=27-	=27-	=27-	=27-	=27-	=27-
!	!	!	!	!LO:TX:a:t=P:problem:# above	!
0.D	-ſis	0.A	-ſis	0.f#X	-ſis
=28-	=28-	=28-	=28-	=28-	=28-
1.E-X	in	1.B-	in	1.g	in
2BB-/	ex-	2d\	ex-	2b-\	ex-
1F	-cel-	1c	-cel-	1a	-cel-
=29-	=29-	=29-	=29-	=29-	=29-
0BB-,<	-ſis	0d,<	-ſis	0b-,<	-ſis
1B-	O-	1d	O-	1b-	O-
=30-	=30-	=30-	=30-	=30-	=30-
1B-	-ſan-	1d	-ſan-	1b-	-ſan-
1B-,<	-na	1d,<	-na	1b-,<	-na
*	*ij	*	*ij	*	*ij
!	!	!LO:TX:b:t=P:problem:# below	!	!LO:SIC:v:t=custos a	!
1G	O-	1e#X	O-	1b-	O-
!	!	!	!	!LO:LB:g=original	!
=31-	=31-	=31-	=31-	=31-	=31-
!LO:TX:b:t=a:problem:wysokość nuty korygowana	!	!LO:TX:b:t=P:problem:# below	!	!	!
1A	-ſan-	1c#X	-ſan-	1a	-ſan-
!	!	!LO:SIC:v:t=custos d	!	!	!
1A	-na	1c#	-na	1a,<	-na
*	*Xij	*	*Xij	*	*Xij
!LO:TX:b:t=P:problem:# below	!	!LO:LB:g=original	!	!	!
1F#X	O-	1d	O-	1a	O-
=32-	=32-	=32-	=32-	=32-	=32-
1.G	-ſan-	1d	-ſan-	1.g	-ſan-
.	.	1d	-na	.	.
2Fny\	-na	.	.	2a\	-na
1E-X	in	1B-	in	1g	in
=33-	=33-	=33-	=33-	=33-	=33-
*col	*	*col	*	*	*
1C	ex-	1cny	ex-	1g	ex-
*	*	*	*	*lig	*
0D	-cel-	0A	-cel-	1g	-cel-
.	.	.	.	1fny	.
*Xcol	*	*Xcol	*	*Xlig	*
=34-	=34-	=34-	=34-	=34-	=34-
0.GGl;;	-ſis.	0.Gl;;	-ſis.	0.gl	-ſis.
==	==	==	==	==	==
*-	*-	*-	*-	*-	*-
!!!system-decoration: [s1,s2,s3]
!!!RDF**kern: < = below
!!!RDF**kern: l = terminal long
!!!AIN: 1 empty 1 tenor 1 vox
!!!ENC: Marta Lawrence
!!!END: 2021-03-23
!!!ENC: Mateusz Solarz
!!!END: 2021-03-10
